X:6218
T:Sporting Nellie
O:england
R:reel
S:J\"orgen Fischer
M:C|
K:D
ADED A2dc|ABAG EG~G2|ADED A2dc|(3ABA GE EDD2:|
^cdec d3A|^cdeg gedA|^cdec deed|^cAGE D4|
^cdec d3A|^cdeg ged2|a2ag eged|^cAGE D4||
